src/shared/ui/TelegramButton/img/telegram-logo.svg

<svg width="20" height="20" viewBox="0 0 20 20" fill="none" xmlns="http://www.w3.org/2000/svg">
<path d="M10 20C15.5228 20 20 15.5228 20 10C20 4.47715 15.5228 0 10 0C4.47715 0 0 4.47715 0 10C0 15.5228 4.47715 20 10 20Z" fill="url(#teleg_paint0_linear)"/>
<path fill-rule="evenodd" clip-rule="evenodd" d="M4.52587 9.89397C7.44107 8.62386 9.385 7.78653 10.3576 7.38197C13.1348 6.22688 13.7118 6.02623 14.0879 6.0196C14.1707 6.01814 14.3556 6.03865 14.4754 6.13587C14.5766 6.21796 14.6044 6.32885 14.6178 6.40668C14.6311 6.48451 14.6477 6.66181 14.6345 6.80034C14.484 8.38158 13.8328 12.2188 13.5015 13.9898C13.3613 14.7392 13.0853 14.9905 12.8181 15.0151C12.2374 15.0685 11.7964 14.6313 11.234 14.2626C10.3538 13.6857 9.85662 13.3265 9.0023 12.7635C8.01499 12.1129 8.65502 11.7553 9.21769 11.1709C9.36494 11.018 11.9236 8.69066 11.9731 8.47954C11.9793 8.45313 11.9851 8.35471 11.9266 8.30274C11.8681 8.25077 11.7818 8.26854 11.7195 8.28267C11.6313 8.30271 10.2253 9.23204 7.50149 11.0707C7.10239 11.3447 6.74091 11.4782 6.41703 11.4712C6.05998 11.4635 5.37315 11.2693 4.86257 11.1034C4.23632 10.8998 3.73859 10.7922 3.78193 10.4465C3.8045 10.2664 4.05248 10.0822 4.52587 9.89397Z" fill="white"/>
<defs>
<linearGradient id="teleg_paint0_linear" x1="10" y1="0" x2="10" y2="19.8517" gradientUnits="userSpaceOnUse">
<stop stop-color="#2AABEE"/>
<stop offset="1" stop-color="#229ED9"/>
</linearGradient>
</defs>
</svg>

<svg xmlns="http://www.w3.org/2000/svg" width="20" height="20" fill="none"><path fill="url(#a)" d="M10 20a10 10 0 1 0 0-20 10 10 0 0 0 0 20Z"/><path fill="#fff" fill-rule="evenodd" d="M4.53 9.9c2.91-1.28 4.85-2.11 5.83-2.52 2.77-1.15 3.35-1.35 3.73-1.36.08 0 .27.02.39.12.1.08.12.19.14.27.01.07.03.25.01.39-.15 1.58-.8 5.42-1.13 7.19-.14.75-.41 1-.68 1.03-.58.05-1.02-.39-1.59-.76-.88-.57-1.37-.93-2.23-1.5-.99-.65-.34-1 .22-1.59.14-.15 2.7-2.48 2.75-2.69 0-.03.02-.13-.04-.18-.06-.05-.15-.03-.21-.02-.09.02-1.5.95-4.22 2.8-.4.26-.76.4-1.08.4-.36-.02-1.05-.21-1.56-.38-.62-.2-1.12-.3-1.08-.65.02-.18.27-.37.75-.56Z" clip-rule="evenodd"/><defs><linearGradient id="a" x1="10" x2="10" y1="0" y2="19.85" gradientUnits="userSpaceOnUse"><stop stop-color="#2AABEE"/><stop offset="1" stop-color="#229ED9"/></linearGradient></defs></svg>
